T: Trip To Gortin, The
M: 6/8
L: 1/8
K: Amix
|:A3 e3|gfe fed|A3 e3|gfe d2B|A3 e3|gfe fed|A3 a3|fec d3:|
|:A a2age|A g2ged|A3 c3|dBA B2c|A a2age|A g2ged|A3 a3|fec d3:|
